X: 29926
T: O'Sullivan's March
R: jig
M: 6/8
K: Gmajor
|:D|GBA ABd|edB A2 D|G/A/BA B2 A|AFD G2 D|
GBA AB/c/d|edB AF/E/D|GBA B2 G|1 AGG G2:|2 AGG GB/c/d||
|:e2 g edg|edg e2 B|dBe dBg|dBG A2 d|
gg/f/e fd/d/d|edB A2 D|G/A/BA B2 A|1 AG/G/G GB/c/d:|2 AFD G2||

